X: 1
T: Tam Lin   [Dm]
T: the Howling Wind
T: the Glasgow Reel
C: Davey Arthur?
R: reel
S: Elke Baker's version
Z: John Chambers <jc:trillian.mit.edu>
M: C|
L: 1/8
K: Dm
(G, \
| "Dm"~A,2)DA, FA,DA, | "Bb"~B,2DB, FB,DB, | "C"~C2EC GCEG |1 "Dm"FEDC "C"CA, :|2 "C" FEDC "Dm"D3 |]
(^c \
| "Dm"d)cAG F2D(^c | "Dm"d)cAG F2D(=B | "C"~c2)Gc EcG=B | ~c2Gc EcG |]
(^c \
| "Dm"d)cAG F2D(^c | d)cAG F2DC | "Bb"B,A,B,C DCDE | "C"FEDC "Dm"D3 |]
